packages/icons/svg/Fill/trash-3.svg

<svg fill="none" height="24" viewBox="0 0 24 24" width="24" xmlns="http://www.w3.org/2000/svg"><path d="m6 19c0 1.1.9 2 2 2h8c1.1 0 2-.9 2-2v-12h-12zm13-15h-3.5l-1-1h-5l-1 1h-3.5v2h14z" fill="#6b7280"/></svg>

<svg width="24" height="24" viewBox="0 0 24 24" fill="none" xmlns="http://www.w3.org/2000/svg">
<path d="M6 19C6 20.1 6.9 21 8 21H16C17.1 21 18 20.1 18 19V7H6V19ZM19 4H15.5L14.5 3H9.5L8.5 4H5V6H19V4Z" fill="#000000"/>
</svg>
